X: 0921
T: PRUSSIAN MARCH
B: Oliver Ditson "The Boston Collection of Instrumental Music" 1910 p.92 #1
F: http://conquest.imslp.info/files/imglnks/usimg/8/8f/IMSLP175643-PMLP309456-bostoncollection00bost_bw.pdf
%: 2012 John Chambers <jc:trillian.mit.edu>
M: 4/4
L: 1/8
K: C
|:\
C4 E4 | G4 z>GA>B | c>BA>G F>ED>C | G2G>G G2e>d |\
c2c2 c2f>e | d2d2 d2g>f | e2e2 d>cd>e | c2c2 c2z2 :|
|:\
g2g2 agfe | d4 g4 | c2B2 A2d2 | G2G>G G2e>d |\
c2c2 c2f>e | d2d2 d2g>f | e2e2 d>cd>e | c2c2 c2z2 :|
K: G
|:\
d2dc B2B2 | d2c2 A2dB | G2G2 AGFG | ^G2A2 z2G/A/B/c/ |\
d2dc B2B2 | d2c2 A2d2 |  g2d>B A>GA>B | G2G2 G2z2 H:|
|:\
[A4F4] [B4G4] | [c2A2][B2G2] [A4F4] | [B2G2][B2G2] [c2A2][c2A2] | [B4G4] [A4F4] {GABc}|\
[d4B4] [c4A4] | [B4G4] ABcA | [G4B,4] [F4C4] | [G2B,2][G2B,2] [G2B,2]"da Capo"z2 :|

%%sep 1 1 500
%%sep 1 1 500
